X:456
T: DREI LAUB AUF EINER LINDEN
N: E0404
O: Europa, Mitteleuropa, Deutschland
R: Liebes - Lied
M: 3/4
L: 1/8
K: F
F2 | F4F2 | F4G2 | A6 | c6 |
F4F2 | F4E2 | D6 | C4
c2 | c6 | A4
A2 | d4c2 | B4A2 | G6 | A4
A2 | F4F2 | B4B2 | G3AB2 | c4
c2 | c4B2 | A2G4 | F6 | z4

@@@ Tune index: 4106
